X:1
T:Title
%%score { 1 | 2 }
L:1/8
M:3/4
K:Ab
V:1 treble nm="Grand Piano"
V:2 bass 
V:1
 z2 z2 z[Q:1/4=108] [CE] | [CE]2 [_C=D]2 [=CE]2 | [Ec]4 [DB][CA] | A3 G F2 | [CE]4 [CE][CE] | %5
 [CA]4 [CA][CA] | [=Dc]2 [DB]2 [DA]2 |[M:4/4] [EB]6 [DE][DE] |[M:3/4] [CE]2 [_C=D]2 [=CE]2 | %9
 [Ec]4 [DB][CA] | [DA]4 [EG][DF] |[M:2/4] [CE]4 |[M:1/4] [CE]>[CE] |[M:3/4] F2 A2 A2 | G2 A2 B2 | %15
 [CA]6 |[M:1/4] [Ec]2 |[M:3/4] [Ec]3 [=D_c] [E=c]2 | [DB] [CA]3 [CA]2 | A4 GF | [CE]4 [CE][CE] | %21
 A2 A2 A2 | A2 G2 A2 |[M:4/4] B6 E2 |[M:3/4] [CE]2 [_C=D]2 [=CE]2 | [Ec]4 [DB][CA] | %26
 [CA]2 [DB]2 [Ec]2 | [Fd]4 F2 | %28
 E4 AB[Q:1/4=105][Q:1/4=101][Q:1/4=98][Q:1/4=95][Q:1/4=91][Q:1/4=88][Q:1/4=84] | c2 c2 B2 | %30
[M:7/8] [CA]-[CA]-[CA]- [CA]3 z |] %31
V:2
 z2 z2 z [A,,A,] | [A,,A,]2 [A,,A,]2 [A,,A,]2 | [A,,A,]4 [A,,A,][A,,A,] | %3
 [D,F,D]3 [D,G,D] [D,A,D]2 | [A,,A,]4 [A,,A,][A,,A,] | [A,,E,]4 [A,,E,][A,,E,] | %6
 [B,,A,]2 [B,,A,]2 [B,,F,]2 |[M:4/4] [E,G,]6 [E,G,]2 |[M:3/4] [A,,A,]2 [A,,A,]2 [A,,A,]2 | %9
 [A,,A,]4 [A,,A,]2 | [D,F,]4 [D,G,][D,A,] |[M:2/4] [A,,A,]4 |[M:1/4] [A,,A,]>[A,,A,] | %13
[M:3/4] [D,A,D]2 [D,F,D]2 [D,F,D]2 | [E,B,D]2 [E,A,C]2 [E,G,D]2 | [A,,A,]6 |[M:1/4] [A,,A,]2 | %17
[M:3/4] [A,,A,]3 [A,,A,] [A,,A,]2 | [A,,A,] [A,,A,]3 [A,,A,]2 | [D,F,D]4 [D,A,D][D,A,D] | %20
 [A,,A,]4 [A,,A,][A,,A,] | [A,CE]2 [A,CE]2 [A,CE]2 | [F,B,=D]2 [F,B,D]2 [F,B,D]2 | %23
[M:4/4] [E,G,E]6 [E,G,D]2 |[M:3/4] [A,,A,]2 [A,,A,]2 [A,,A,]2 | [A,,A,]4 [A,,A,][A,,A,] | %26
 [A,,A,]2 [A,,A,]2 [A,,A,]2 | [D,A,]4 [D,A,D]2 | [E,A,C]4 [E,F,C][E,G,D] | %29
 [E,A,E]2 [E,G,E]2 [E,G,D]2 |[M:7/8] [A,,E,A,]-[A,,E,A,]-[A,,E,A,]- [A,,E,A,]3 z |] %31

